outputs/icons/device/cellular_signal_round.svg

<svg xmlns="http://www.w3.org/2000/svg" width="1200" height="1200" fill="none"><g clip-path="url(#a)"><path fill="#000" d="M925 200c41.5 0 75 33.5 75 75v650c0 41.5-33.5 75-75 75s-75-33.5-75-75V275c0-41.5 33.5-75 75-75M325 700c41.5 0 75 33.5 75 75v150c0 41.5-33.5 75-75 75s-75-33.5-75-75V775c0-41.5 33.5-75 75-75m300-250c41.5 0 75 33.5 75 75v400c0 41.5-33.5 75-75 75s-75-33.5-75-75V525c0-41.5 33.5-75 75-75"/></g><defs><clipPath id="a"><path fill="#fff" d="M0 0h1200v1200H0z"/></clipPath></defs></svg>

<svg width="1200" height="1200" viewBox="0 0 1200 1200" fill="none" xmlns="http://www.w3.org/2000/svg"><g clip-path="url(#clip0_231_4450)"><path d="M925 200C966.5 200 1000 233.5 1000 275V925C1000 966.5 966.5 1000 925 1000C883.5 1000 850 966.5 850 925V275C850 233.5 883.5 200 925 200ZM325 700C366.5 700 400 733.5 400 775V925C400 966.5 366.5 1000 325 1000C283.5 1000 250 966.5 250 925V775C250 733.5 283.5 700 325 700ZM625 450C666.5 450 700 483.5 700 525V925C700 966.5 666.5 1000 625 1000C583.5 1000 550 966.5 550 925V525C550 483.5 583.5 450 625 450Z" fill="#1D1E23"/></g><defs><clipPath id="clip0_231_4450"><path width="24" fill="white" d="M0 0H1200V1200H0V0z"/></clipPath></defs></svg>
